X:59
T:Lisa's Welcome Home
R:jig
C:Paul S. Cranford
O:Cape Breton Island
S:http://www.cranfordpub.com
D:currently unrecorded
B:Fiddler Magazine 2000
Z:psc, (re-formatted,updated 9/17/04)
N:
H:                                                        copyrights Cranford Publications, SOCAN
L:1/8
Q:333
M:6/8
K:D
ADE FED|AdB AFG|AFd AFA|BAF EFG|
ADE FED|AdB AFG|AdB AFE|FDD D3:|
|:Ade fed|afd edB|AFd Ade|1fed edB|
Ade fed|afd efg|afb afe|fdd d3:|
[2fed efg|afb afe|fdB AFG|AdB AFE|FDD D3|]
